X:1
T: Motif 8
L:1/8
M:4/4
V:1
V:2 clef=bass
K:C
[V:1] z D F/2 A/2 C/2 e d z c | B_D_F/2 A E/2 D/2 z2 | z C E/2 G/2 B/2 d c z B | _B^C E G F/2 E/2 z2 :|
[V:2] [D,F,C]8 | [G,,F,B,]8 | [C,E,B,]8 | [A,,G,^C]8 :|